core/assets/icons/key.svg

<svg width="24" height="24" viewBox="0 0 24 24" xmlns="http://www.w3.org/2000/svg"><g id="key"><path id="Vector" d="M12.917 13.0001C12.6623 14.4802 11.8619 15.811 10.6739 16.7298C9.48593 17.6486 7.99666 18.0886 6.50009 17.963C5.00352 17.8374 3.60841 17.1554 2.59016 16.0514C1.57191 14.9475 1.00452 13.5019 1 12.0001C0.998629 10.4947 1.56319 9.04382 2.58168 7.93527C3.60017 6.82672 4.99816 6.14153 6.49828 6.01565C7.9984 5.88977 9.49103 6.3324 10.68 7.25571C11.869 8.17902 12.6675 9.51555 12.917 11.0001H23V13.0001H21V17.0001H19V13.0001H17V17.0001H15V13.0001H12.917ZM7 16.0001C8.06087 16.0001 9.07828 15.5787 9.82843 14.8285C10.5786 14.0784 11 13.061 11 12.0001C11 10.9392 10.5786 9.92183 9.82843 9.17169C9.07828 8.42154 8.06087 8.00012 7 8.00012C5.93914 8.00012 4.92172 8.42154 4.17158 9.17169C3.42143 9.92183 3 10.9392 3 12.0001C3 13.061 3.42143 14.0784 4.17158 14.8285C4.92172 15.5787 5.93914 16.0001 7 16.0001V16.0001Z"/></g></svg>

<svg xmlns="http://www.w3.org/2000/svg" width="24" height="24" fill="none"><path fill="#191C22" d="M12.917 13A6.002 6.002 0 0 1 1 12a6 6 0 0 1 11.917-1H23v2h-2v4h-2v-4h-2v4h-2v-4h-2.083ZM7 16a4 4 0 1 0 0-8 4 4 0 0 0 0 8Z"/></svg>
